!!!COM: Hugo Wolf
!!!CNT: Deutscher
!!!TXO: Deutsche 
!!!OTL: Wenn Ich Dein Gedenke
!!!ODT: 1889/01/25
!!!ONM: No. 46
!!!LYR: Johann Wolfgang von Goethe
!!!ENC: Brian Bice
!!!YOR: 45 Songs on Poems of Goethe and Eichendorff, Dover Publications, 1995
!!NB: Vocal melody and text only encoded.
**kern	**silbe
*clefG2	*
*k[b-e-a-d-]	*
*M6/8	*
=1	=1
4r	.
8r	.
{4b-	{Wenn
8cc	ich
=2	=2
4dd-	dein
8cc	ge-
4b-	-den-
8dd-	-ke,
=3	=3
4r	.
8r	.
4cc-	fragt
8b-	mich
=4	=4
4a-	gleich
8g	der
4a-	Schen-
8d-}	-ke:}
=5	=5
4r	.
8r	.
{4.en	{Herr,
=6	=6
8r	.
8r	.
8en	war-
[4.en	-um
=7	=7
4.en]	|
4.g	so
=8	=8
[4.b-	still?
4b-]}	|}
8r	.
=9	=9
4r	.
8r	.
{4a-	{Da
8a-	von
=10	=10
4b--	dei-
8f-	-nen
4e-	Leh-
8b--	-ren
=11	=11
4r	.
8r	.
4een	im-
8dd#	-mer
=12	=12
4cc#	wei-
8bn	-ter
4an	ho2-
8g#}	-ren}
=13	=13
4r	.
8r	.
{[4.ccn	{Sa-
=14	=14
4ccn]	|
8bn	-ki
[4.an	ger-
=15	=15
4.an]	|
4.cc	-ne
=16	=16
[4.f#	will.
4f#]}	|}
8r	.
=19	=19
4r	.
8r	.
8r	.
{8f#	{Wenn
8g#	ich
=20	=20
4an	mich
8dd#	ver-
[4.dd#	-ges-
=21	=21
4dd#]	|
8f#	-se
8r	.
8en	un-
8f#	-ter
=22	=22
8g	der
8an	Zy-
[8bn	-pres-
4bn]	|
8en}	-se,}
=23	=23
4r	.
8r	.
{[4.fn	{ha2lt
=24	=24
4fn]	|
8an	er
4.a-	nichts
=25	=25
4r	.
8r	.
4r	.
8gn	da-
=26	=26
4c}	-von;}
8r	.
4r	.
8r	.
=27	=27
4r	.
8r	.
8r	.
{8b-	{und
8a-	im
=28	=28
4g	stil-
8a-	-len
8b-	Krei-
8cc	|
8dd-	-se
=29	=29
4r	.
8r	.
8r	.
8a-	bin
8g	ich
=30	=30
4a-	doch
8ee-	so
[4.ee-	wei-
=31	=31
4ee-]	|
8g-}	-se,}
4r	.
8r	.
=32	=32
8r	.
8r	.
{[8dd-	{klug
4.dd-]	|
=33	=33
8r	.
8r	.
8g	wie
4cc	Sa-
8cc	-lo-
=34	=34
[2.cc	-mon.
=35	=35
4.cc]}	|}
4r	.
8r	.
*-	*-
